app/images/dist/music-playlist.svg

<svg width="48" height="48" viewBox="0 0 48 48" fill="none" xmlns="http://www.w3.org/2000/svg">
<path d="M34 44H14C8 44 4 41 4 34V24C4 17 8 14 14 14H34C40 14 44 17 44 24V34C44 41 40 44 34 44Z" stroke="#DC143C" stroke-width="1.5" stroke-miterlimit="10" stroke-linecap="round" stroke-linejoin="round"/>
<path d="M12 9H36" stroke="#DC143C" stroke-width="1.5" stroke-miterlimit="10" stroke-linecap="round" stroke-linejoin="round"/>
<path d="M18 4H30" stroke="#DC143C" stroke-width="1.5" stroke-miterlimit="10" stroke-linecap="round" stroke-linejoin="round"/>
<g opacity="0.4">
<path d="M17.7791 38.2197C19.2923 38.2197 20.519 36.993 20.519 35.4797C20.519 33.9665 19.2923 32.7397 17.7791 32.7397C16.2658 32.7397 15.0391 33.9665 15.0391 35.4797C15.0391 36.993 16.2658 38.2197 17.7791 38.2197Z" stroke="#DC143C" stroke-width="1.5" stroke-linecap="round" stroke-linejoin="round"/>
<path d="M30.5596 33.66V22.9599C30.5596 20.6799 29.1396 20.3599 27.6796 20.7599L22.1995 22.2599C21.1995 22.5399 20.5195 23.3199 20.5195 24.4599V26.3599V27.6399V35.4799" stroke="#DC143C" stroke-width="1.5" stroke-linecap="round" stroke-linejoin="round"/>
<path d="M27.8181 36.3999C29.3314 36.3999 30.5582 35.1732 30.5582 33.6599C30.5582 32.1467 29.3314 30.9199 27.8181 30.9199C26.3049 30.9199 25.0781 32.1467 25.0781 33.6599C25.0781 35.1732 26.3049 36.3999 27.8181 36.3999Z" stroke="#DC143C" stroke-width="1.5" stroke-linecap="round" stroke-linejoin="round"/>
<path d="M20.5195 27.6599L30.5596 24.9199" stroke="#DC143C" stroke-width="1.5" stroke-linecap="round" stroke-linejoin="round"/>
</g>
</svg>

<svg width="48" height="48" fill="none" xmlns="http://www.w3.org/2000/svg"><path d="M34 44H14C8 44 4 41 4 34V24c0-7 4-10 10-10h20c6 0 10 3 10 10v10c0 7-4 10-10 10ZM12 9h24M18 4h12" stroke="#DC143C" stroke-width="1.5" stroke-miterlimit="10" stroke-linecap="round" stroke-linejoin="round"/><g opacity=".4" stroke="#DC143C" stroke-width="1.5" stroke-linecap="round" stroke-linejoin="round"><path d="M17.78 38.22a2.74 2.74 0 1 0-.001-5.48 2.74 2.74 0 0 0 0 5.48Z"/><path d="M30.56 33.66v-10.7c0-2.28-1.42-2.6-2.88-2.2l-5.48 1.5c-1 .28-1.68 1.06-1.68 2.2v11.02"/><path d="M27.818 36.4a2.74 2.74 0 1 0 0-5.48 2.74 2.74 0 0 0 0 5.48Zm-7.298-8.74 10.04-2.74"/></g></svg>
